pics/light-and-power/Light.svg

<?xml version="1.0" encoding="iso-8859-1"?>
<!-- Generator: Adobe Illustrator 12.0.0, SVG Export Plug-In . SVG Version: 6.00 Build 51448)  -->
<!DOCTYPE svg PUBLIC "-//W3C//DTD SVG 1.1//EN" "http://www.w3.org/Graphics/SVG/1.1/DTD/svg11.dtd" [
	<!ENTITY ns_svg "http://www.w3.org/2000/svg">
	<!ENTITY ns_xlink "http://www.w3.org/1999/xlink">
]>
<svg  version="1.1" id="&#xCD;_xBC__xB2_&#xE3;_x5F_1" xmlns="&ns_svg;" xmlns:xlink="&ns_xlink;" width="32.956" height="36.415"
	 viewBox="0 0 32.956 36.415" style="overflow:visible;enable-background:new 0 0 32.956 36.415;" xml:space="preserve">
<g>
	
		<radialGradient id="XMLID_5_" cx="-1.4043" cy="-0.2959" r="16.8429" gradientTransform="matrix(0.8892 0 0 0.945 15.8515 17.2959)" gradientUnits="userSpaceOnUse">
		<stop  offset="0" style="stop-color:#FFFFFF"/>
		<stop  offset="0.1147" style="stop-color:#FCF9E9"/>
		<stop  offset="0.3539" style="stop-color:#F9EEBC"/>
		<stop  offset="0.6936" style="stop-color:#F6E176"/>
		<stop  offset="1" style="stop-color:#F2D710"/>
	</radialGradient>
	<polygon style="fill:url(#XMLID_5_);" points="14.602,0.705 16.975,9.259 23.623,3.82 20.811,12.223 29.199,11.976 22.275,17.018 
		29.199,22.057 20.811,21.81 23.623,30.212 16.975,24.773 14.602,33.326 12.23,24.773 5.582,30.212 8.395,21.81 0.006,22.057 
		6.93,17.018 0.006,11.976 8.395,12.223 5.582,3.821 12.23,9.259 	"/>
	<linearGradient id="XMLID_6_" gradientUnits="userSpaceOnUse" x1="31.6055" y1="35.0195" x2="23.513" y2="26.6991">
		<stop  offset="0.0056" style="stop-color:#CED4DB"/>
		<stop  offset="0.0113" style="stop-color:#C8CFD4"/>
		<stop  offset="0.0179" style="stop-color:#B8BFC2"/>
		<stop  offset="0.0249" style="stop-color:#9FA7A7"/>
		<stop  offset="0.0322" style="stop-color:#808A87"/>
		<stop  offset="0.0397" style="stop-color:#5D6B62"/>
		<stop  offset="0.0449" style="stop-color:#44564C"/>
		<stop  offset="0.137" style="stop-color:#37473E"/>
		<stop  offset="0.258" style="stop-color:#28372F"/>
		<stop  offset="0.3847" style="stop-color:#192820"/>
		<stop  offset="0.5169" style="stop-color:#071810"/>
		<stop  offset="0.6568" style="stop-color:#010B05"/>
		<stop  offset="0.8097" style="stop-color:#000201"/>
		<stop  offset="1" style="stop-color:#000000"/>
	</linearGradient>
	<polygon style="fill:url(#XMLID_6_);stroke:#363639;stroke-width:0.25;" points="32.049,36.036 27.375,34.854 31.52,30.747 	"/>
	
		<radialGradient id="XMLID_7_" cx="-2.9009" cy="-3.9224" r="15.9601" gradientTransform="matrix(0.8892 0 0 0.945 15.8515 17.2959)" gradientUnits="userSpaceOnUse">
		<stop  offset="0.4944" style="stop-color:#FFFFFF"/>
		<stop  offset="0.5517" style="stop-color:#FFFDF8"/>
		<stop  offset="0.6199" style="stop-color:#F9F4E8"/>
		<stop  offset="0.6936" style="stop-color:#F4ECD2"/>
		<stop  offset="0.7712" style="stop-color:#F1E3B6"/>
		<stop  offset="0.8518" style="stop-color:#EAD793"/>
		<stop  offset="0.9338" style="stop-color:#E4CA6A"/>
		<stop  offset="1" style="stop-color:#DEBF3E"/>
	</radialGradient>
	<path style="fill:url(#XMLID_7_);stroke:#262D2E;stroke-width:0.75;" d="M27.066,20.747l-1.273-1.503
		c-0.785-0.928-1.775-1.538-2.834-1.841c0.531-1.421,0.832-2.965,0.832-4.586c0-6.871-5.242-12.442-11.709-12.442
		c-6.465,0-11.707,5.571-11.707,12.442c0,6.872,5.242,12.443,11.707,12.443c1.195,0,2.346-0.192,3.432-0.545
		c0.191,1.092,0.648,2.144,1.398,3.027l1.273,1.503c2.184,2.578,5.939,2.76,8.391,0.414C29.029,27.313,29.25,23.323,27.066,20.747z"
		/>
	<linearGradient id="XMLID_8_" gradientUnits="userSpaceOnUse" x1="30.3066" y1="26.1084" x2="22.1895" y2="33.9127">
		<stop  offset="0.0449" style="stop-color:#44564C"/>
		<stop  offset="0.0869" style="stop-color:#59675E"/>
		<stop  offset="0.1535" style="stop-color:#77827E"/>
		<stop  offset="0.2232" style="stop-color:#949C9B"/>
		<stop  offset="0.296" style="stop-color:#ACB3B5"/>
		<stop  offset="0.3729" style="stop-color:#BEC5CA"/>
		<stop  offset="0.4571" style="stop-color:#CAD1D7"/>
		<stop  offset="0.5618" style="stop-color:#CED4DB"/>
		<stop  offset="0.625" style="stop-color:#C8CFD4"/>
		<stop  offset="0.6982" style="stop-color:#B8BFC2"/>
		<stop  offset="0.7765" style="stop-color:#9FA7A7"/>
		<stop  offset="0.8582" style="stop-color:#808A87"/>
		<stop  offset="0.9419" style="stop-color:#5D6B62"/>
		<stop  offset="1" style="stop-color:#44564C"/>
	</linearGradient>
	<path style="fill:url(#XMLID_8_);stroke:#363639;stroke-width:0.5;" d="M32.701,28.604c-0.168,2.09-6.211,8.125-8.135,7.52
		c-1.924-0.607-5.256-5.732-5.256-5.732l8.766-8.207C28.076,22.184,32.867,26.515,32.701,28.604z"/>
	<path style="opacity:0.66;fill:#EDF1F4;" d="M30.867,24.847c-0.143,1.287-8.893,8.327-9.781,8.15
		c-0.891-0.178-0.777-0.886,0.557-1.301c1.332-0.412,6.502-4.665,7.559-6.199C30.246,23.977,30.979,23.844,30.867,24.847z"/>
	<path style="opacity:0.66;fill:#EDF1F4;" d="M32.83,28.489c0.223,1.534-6.428,8.465-8.15,7.639
		c-1.334-0.237-1.277-0.828-1.277-0.828c4.279-0.59,8.93-7.756,8.93-7.756S32.607,26.952,32.83,28.489z"/>
	<path style="opacity:0.14;fill:#FFFFFF;stroke:#000000;stroke-width:0.25;" d="M23.559,25.873l-8.41-12.518
		c0.014-0.01,0.029-0.018,0.043-0.028c0.82-0.688,0.955-1.952,0.307-2.821c-0.646-0.869-1.836-1.015-2.654-0.327
		c-0.816,0.689-0.955,1.952-0.307,2.823c0.201,0.27,0.457,0.459,0.734,0.586l-0.49,0.413c-0.063-0.27-0.178-0.528-0.35-0.761
		c-0.648-0.868-1.836-1.016-2.654-0.327c-0.818,0.69-0.955,1.953-0.305,2.823c0.646,0.868,1.836,1.015,2.652,0.325
		c0.082-0.067,0.148-0.146,0.217-0.222l9.805,11.375L23.559,25.873z"/>
	<path style="opacity:0.42;fill:#D2CDBD;" d="M10.674,23.372c-0.91-0.14-4.654-1.232-5.482-1.497
		c1.066,1.691,2.52,2.205,5.023,2.761c3.926,0.869,6.76,0.138,8.611-3.233c0.264-0.479,1.029-1.598,0.889-2.127
		C17.738,21.726,15.373,24.098,10.674,23.372z"/>
</g>
</svg>

<?xml version="1.0" encoding="UTF-8" standalone="no"?>
<!-- Generator: Adobe Illustrator 12.0.0, SVG Export Plug-In . SVG Version: 6.00 Build 51448)  -->
<svg
   xmlns:dc="http://purl.org/dc/elements/1.1/"
   xmlns:cc="http://web.resource.org/cc/"
   xmlns:rdf="http://www.w3.org/1999/02/22-rdf-syntax-ns#"
   xmlns:svg="http://www.w3.org/2000/svg"
   xmlns="http://www.w3.org/2000/svg"
   xmlns:sodipodi="http://sodipodi.sourceforge.net/DTD/sodipodi-0.dtd"
   xmlns:inkscape="http://www.inkscape.org/namespaces/inkscape"
   version="1.1"
   id="Í_xBC__xB2_ã_x5F_1"
   width="32.956"
   height="36.415"
   viewBox="0 0 32.956 36.415"
   style="overflow:visible;enable-background:new 0 0 32.956 36.415;"
   xml:space="preserve"
   sodipodi:version="0.32"
   inkscape:version="0.44.1"
   sodipodi:docname="Light.svg"
   sodipodi:docbase="/home/ybodson/depot/qtopia/main/pics/light-and-power"><metadata
   id="metadata110"><rdf:RDF><cc:Work
       rdf:about=""><dc:format>image/svg+xml</dc:format><dc:type
         rdf:resource="http://purl.org/dc/dcmitype/StillImage" /></cc:Work></rdf:RDF></metadata><defs
   id="defs108"><radialGradient
     gradientUnits="userSpaceOnUse"
     gradientTransform="matrix(0.8892,0,0,0.945,15.8515,17.2959)"
     r="16.8429"
     cy="-0.2959"
     cx="-1.4043"
     id="XMLID_5_">
		<stop
   id="stop6"
   style="stop-color:#FFFFFF"
   offset="0" />
		<stop
   id="stop8"
   style="stop-color:#FCF9E9"
   offset="0.1147" />
		<stop
   id="stop10"
   style="stop-color:#F9EEBC"
   offset="0.3539" />
		<stop
   id="stop12"
   style="stop-color:#F6E176"
   offset="0.6936" />
		<stop
   id="stop14"
   style="stop-color:#F2D710"
   offset="1" />
	</radialGradient><linearGradient
     y2="26.6991"
     x2="23.513"
     y1="35.0195"
     x1="31.6055"
     gradientUnits="userSpaceOnUse"
     id="XMLID_6_">
		<stop
   id="stop19"
   style="stop-color:#CED4DB"
   offset="0.0056" />
		<stop
   id="stop21"
   style="stop-color:#C8CFD4"
   offset="0.0113" />
		<stop
   id="stop23"
   style="stop-color:#B8BFC2"
   offset="0.0179" />
		<stop
   id="stop25"
   style="stop-color:#9FA7A7"
   offset="0.0249" />
		<stop
   id="stop27"
   style="stop-color:#808A87"
   offset="0.0322" />
		<stop
   id="stop29"
   style="stop-color:#5D6B62"
   offset="0.0397" />
		<stop
   id="stop31"
   style="stop-color:#44564C"
   offset="0.0449" />
		<stop
   id="stop33"
   style="stop-color:#37473E"
   offset="0.137" />
		<stop
   id="stop35"
   style="stop-color:#28372F"
   offset="0.258" />
		<stop
   id="stop37"
   style="stop-color:#192820"
   offset="0.3847" />
		<stop
   id="stop39"
   style="stop-color:#071810"
   offset="0.5169" />
		<stop
   id="stop41"
   style="stop-color:#010B05"
   offset="0.6568" />
		<stop
   id="stop43"
   style="stop-color:#000201"
   offset="0.8097" />
		<stop
   id="stop45"
   style="stop-color:#000000"
   offset="1" />
	</linearGradient><radialGradient
     gradientUnits="userSpaceOnUse"
     gradientTransform="matrix(0.8892,0,0,0.945,15.8515,17.2959)"
     r="15.9601"
     cy="-3.9224"
     cx="-2.9009"
     id="XMLID_7_">
		<stop
   id="stop50"
   style="stop-color:#fff8cb;stop-opacity:1;"
   offset="0.49439999" />
		<stop
   id="stop52"
   style="stop-color:#fff7d1;stop-opacity:1;"
   offset="0.5517" />
		<stop
   id="stop54"
   style="stop-color:#fcf7c1;stop-opacity:1;"
   offset="0.61989999" />
		<stop
   id="stop56"
   style="stop-color:#f8eeb4;stop-opacity:1;"
   offset="0.6936" />
		<stop
   id="stop58"
   style="stop-color:#f0ea9f;stop-opacity:1;"
   offset="0.7712" />
		<stop
   id="stop60"
   style="stop-color:#EAD793"
   offset="0.8518" />
		<stop
   id="stop62"
   style="stop-color:#E4CA6A"
   offset="0.9338" />
		<stop
   id="stop64"
   style="stop-color:#DEBF3E"
   offset="1" />
	</radialGradient><linearGradient
     y2="33.9127"
     x2="22.1895"
     y1="26.1084"
     x1="30.3066"
     gradientUnits="userSpaceOnUse"
     id="XMLID_8_">
		<stop
   id="stop69"
   style="stop-color:#44564C"
   offset="0.0449" />
		<stop
   id="stop71"
   style="stop-color:#59675E"
   offset="0.0869" />
		<stop
   id="stop73"
   style="stop-color:#77827E"
   offset="0.1535" />
		<stop
   id="stop75"
   style="stop-color:#949C9B"
   offset="0.2232" />
		<stop
   id="stop77"
   style="stop-color:#ACB3B5"
   offset="0.296" />
		<stop
   id="stop79"
   style="stop-color:#BEC5CA"
   offset="0.3729" />
		<stop
   id="stop81"
   style="stop-color:#CAD1D7"
   offset="0.4571" />
		<stop
   id="stop83"
   style="stop-color:#CED4DB"
   offset="0.5618" />
		<stop
   id="stop85"
   style="stop-color:#C8CFD4"
   offset="0.625" />
		<stop
   id="stop87"
   style="stop-color:#B8BFC2"
   offset="0.6982" />
		<stop
   id="stop89"
   style="stop-color:#9FA7A7"
   offset="0.7765" />
		<stop
   id="stop91"
   style="stop-color:#808A87"
   offset="0.8582" />
		<stop
   id="stop93"
   style="stop-color:#5D6B62"
   offset="0.9419" />
		<stop
   id="stop95"
   style="stop-color:#44564C"
   offset="1" />
	</linearGradient></defs><sodipodi:namedview
   inkscape:window-height="616"
   inkscape:window-width="873"
   inkscape:pageshadow="2"
   inkscape:pageopacity="0.0"
   guidetolerance="10.0"
   gridtolerance="10.0"
   objecttolerance="10.0"
   borderopacity="1.0"
   bordercolor="#666666"
   pagecolor="#ffffff"
   id="base"
   inkscape:zoom="11.176713"
   inkscape:cx="16.478002"
   inkscape:cy="18.11803"
   inkscape:window-x="272"
   inkscape:window-y="367"
   inkscape:current-layer="Í_xBC__xB2_ã_x5F_1" />
<polygon
   id="polygon16"
   points="14.602,0.705 16.975,9.259 23.623,3.82 20.811,12.223 29.199,11.976 22.275,17.018 29.199,22.057 20.811,21.81 23.623,30.212 16.975,24.773 14.602,33.326 12.23,24.773 5.582,30.212 8.395,21.81 0.006,22.057 6.93,17.018 0.006,11.976 8.395,12.223 5.582,3.821 12.23,9.259 14.602,0.705 "
   style="fill:url(#XMLID_5_)" /><polygon
   id="polygon47"
   points="32.049,36.036 27.375,34.854 31.52,30.747 32.049,36.036 "
   style="fill:url(#XMLID_6_);stroke:#363639;stroke-width:0.25" /><path
   id="path66"
   d="M 27.066,20.747 L 25.793,19.244 C 25.008,18.316 24.018,17.706 22.959,17.403 C 23.49,15.982 23.791,14.438 23.791,12.817 C 23.791,5.946 18.549,0.375 12.082,0.375 C 5.617,0.375 0.375,5.946 0.375,12.817 C 0.375,19.689 5.617,25.26 12.082,25.26 C 13.277,25.26 14.428,25.068 15.514,24.715 C 15.705,25.807 16.162,26.859 16.912,27.742 L 18.185,29.245 C 20.369,31.823 24.124,32.005 26.576,29.659 C 29.029,27.313 29.25,23.323 27.066,20.747 z "
   style="fill:url(#XMLID_7_);stroke:#262d2e;stroke-width:0.75" /><path
   id="path97"
   d="M 32.701,28.604 C 32.533,30.694 26.49,36.729 24.566,36.124 C 22.642,35.517 19.31,30.392 19.31,30.392 L 28.076,22.185 C 28.076,22.184 32.867,26.515 32.701,28.604 z "
   style="fill:url(#XMLID_8_);stroke:#363639;stroke-width:0.5" /><path
   id="path99"
   d="M 30.867,24.847 C 30.724,26.134 21.974,33.174 21.086,32.997 C 20.195,32.819 20.309,32.111 21.643,31.696 C 22.975,31.284 28.145,27.031 29.202,25.497 C 30.246,23.977 30.979,23.844 30.867,24.847 z "
   style="opacity:0.66000001;fill:#edf1f4" /><path
   id="path101"
   d="M 32.83,28.489 C 33.053,30.023 26.402,36.954 24.68,36.128 C 23.346,35.891 23.403,35.3 23.403,35.3 C 27.682,34.71 32.333,27.544 32.333,27.544 C 32.333,27.544 32.607,26.952 32.83,28.489 z "
   style="opacity:0.66000001;fill:#edf1f4" /><path
   id="path103"
   d="M 23.559,25.873 L 15.149,13.355 C 15.163,13.345 15.178,13.337 15.192,13.327 C 16.012,12.639 16.147,11.375 15.499,10.506 C 14.853,9.637 13.663,9.491 12.845,10.179 C 12.029,10.868 11.89,12.131 12.538,13.002 C 12.739,13.272 12.995,13.461 13.272,13.588 L 12.782,14.001 C 12.719,13.731 12.604,13.473 12.432,13.24 C 11.784,12.372 10.596,12.224 9.778,12.913 C 8.96,13.603 8.823,14.866 9.473,15.736 C 10.119,16.604 11.309,16.751 12.125,16.061 C 12.207,15.994 12.273,15.915 12.342,15.839 L 22.147,27.214 L 23.559,25.873 z "
   style="opacity:0.13999999;fill:white;stroke:black;stroke-width:0.25" /><path
   id="path105"
   d="M 10.674,23.372 C 9.764,23.232 6.02,22.14 5.192,21.875 C 6.258,23.566 7.712,24.08 10.215,24.636 C 14.141,25.505 16.975,24.774 18.826,21.403 C 19.09,20.924 19.855,19.805 19.715,19.276 C 17.738,21.726 15.373,24.098 10.674,23.372 z "
   style="opacity:0.41999996;fill:#d2cdbd" />
</svg>
